!!! OTL: Berkowitz463
!!! Chapter: 1
!!! Section: IV
!!! Page: 115
!!! Mode: 
!!! Encoder: DJB
**kern
*staff1
*I"Piano
=1-
*clefC3
*k[f#c#g#d#]
*c#:
*M6/8
4r
4.r
8g#\
=2
8.c#\L
16d#\L
16e\
16f#\JJ
8g#\L
8.a\
16g#\Jk
=3
8f#\L
8.g#\
16f#\Jk
8e\L
8d#\
8c#\J
=4
8.B#\L
16c#\L
16d#\
16e\JJ
8d#\
8r
8g#\
=5
8.a\L
16g#\L
16f#\
16a\JJ
4cc#\
8a\
=6
8.g#\L
16f#\L
16e\
16g#\JJ
4cc#\
8c#\
=7
8d#\L
8a\
8g#\J
8f#\L
8e\
8d#\J
=8
!!linebreak:original
8.c#\L
16B#\L
16e\
16d#\JJ
4c#\
8r
==
*-
